X:1
T:Title
%%score { ( 1 4 ) | ( 2 3 ) }
L:1/8
M:3/4
K:Bb
V:1 treble nm="Grand Piano"
V:4 treble 
V:2 bass 
V:3 bass 
V:1
 z2 z2[Q:1/4=108] F2 | [DB]4 [FA]>[EG] | [DF]2 [DF]2 [DF]2 | [EG]4 [DF]>[CE] | [CE]2 D2 F>F | %5
 [DB]2 [DB]2 F2 | c2 c2 F2 | [Fd]2 [Fc]2 [FB]2 | c4 d>c | B2 B2 B2 | [^FA]4 [FB]>[FA] | G2 B2 G2 | %12
 [DF]4 [B,D]>[CE] | [DF]2 [EG]2 [EA]2 | [DB]2 c2 d2 | [Gc]2 [DFB]2 [CEA]2 | [B,DB]6 |[M:1/4] F2 | %18
[M:3/4] [Fd]4 [Ec]>[B,FB] | [B,GB]2 [B,FA]2 [B,EG]2 | [CGc]4 [CGc]>[_DGB] | [DB]2 A2 GF | %22
 [DB]4 [FA]>G | [DF]2 [DF]2 G2 | E2 G2 B2 |[M:4/4] [DF]6 [B,D]>[CE] |[M:3/4] [DF]2 [FB]2 c2 | %27
 d2 [Fd]2 [FB]2 | [Gc]2 [FB]2 [EA]2 | [DB]6 |] %30
V:2
 z2 z2 F,2 | [B,,B,]4 [B,,B,]>[B,,B,] | [B,,B,]2 [B,,B,]2 [B,,B,]2 | [E,B,]4 [F,B,]2 | %4
 z2 B,2 F,>[F,E] | [B,,F,]2 [B,,F,]2 F,2 | [F,A,F]2 [F,A,E]2 [F,A,]2 | [B,,B,]2 [C,A,]2 [D,B,]2 | %8
 [F,A,F]4 [F,A,F]>[F,A,E] | [G,B,D]2 [G,B,D]2 [G,B,D]2 | [D,C]4 [D,C]>[D,C] | %11
 [E,B,]2 [E,G,E]2 [E,B,E]2 | [B,,B,]4 [B,,F,]>[B,,F,] | [B,,B,]2 [E,B,]2 [C,F,]2 | %14
 [B,,B,]2 [F,A,E]2 [B,F]2 | [E,B,]2 F,2 F,2 | B,,6 |[M:1/4] F,2 |[M:3/4] [B,,B,]4 [C,A,]>D, | %19
 E,2 E,2 E,2 | =E,4 E,>E, | z2 C2 [F,E]-[F,A,E] | [B,,B,]4 [B,,B,]>[B,,B,] | %23
 [B,,B,]2 [B,,B,]2 [E,B,E]2 | [E,G,]2 [E,B,E]2 [E,G,E]2 |[M:4/4] [B,,B,]6 [B,,F,]>[B,,F,] | %26
[M:3/4] [B,,B,]2 [D,B,]2[K:treble] [F,A,F]2 | [B,F]2[K:bass] [B,,B,]2 [D,B,]2 | %28
 [E,E]2 [F,D]2 [F,C]2 | [B,,B,]6 |] %30
V:3
 x6 | x6 | x6 | x6 | [B,,F,]4 z2 | x6 | x6 | x6 | x6 | x6 | x6 | x6 | x6 | x6 | x6 | x6 | x6 | %17
[M:1/4] x2 |[M:3/4] x6 | x6 | x6 | F,4 .B,2 | x6 | x6 | x6 |[M:4/4] x8 |[M:3/4] x4[K:treble] x2 | %27
 x2[K:bass] x4 | x6 | x6 |] %30
V:4
 x6 | x6 | x6 | x6 | x6 | x6 | x6 | x6 | x6 | x6 | x6 | x6 | x6 | x6 | x6 | x6 | x6 |[M:1/4] x2 | %18
[M:3/4] x6 | x6 | x6 | F4 z2 | x6 | x6 | x6 |[M:4/4] x8 |[M:3/4] x6 | x6 | x6 | x6 |] %30

